src/assets/svg/icons/fa/nuevos/classic/light/bitcoin-sign classic light.svg

<svg xmlns="http://www.w3.org/2000/svg" viewBox="0 0 320 512"><path d="M64 16C64 7.164 71.16 0 80 0C88.84 0 96 7.164 96 16V64H160V16C160 7.164 167.2 0 176 0C184.8 0 192 7.164 192 16V64.3C245.7 68.39 288 113.3 288 168C288 199.3 274.1 227.4 252.2 246.5C291.8 261.2 320 299.3 320 344C320 401.4 273.4 448 216 448H192V496C192 504.8 184.8 512 176 512C167.2 512 160 504.8 160 496V448H96V496C96 504.8 88.84 512 80 512C71.16 512 64 504.8 64 496V448H41.74C18.69 448 0 429.3 0 406.3V101.6C0 80.82 16.82 64 37.57 64H64V16zM216 416C255.8 416 288 383.8 288 344C288 304.2 255.8 272 216 272H32V406.3C32 411.6 36.36 416 41.74 416H216zM37.57 96C34.49 96 32 98.49 32 101.6V240H184C223.8 240 256 207.8 256 168C256 128.2 223.8 96 184 96H37.57z"/></svg>

<svg xmlns="http://www.w3.org/2000/svg" viewBox="0 0 320 512"><!--! Font Awesome Pro 6.4.0 by @fontawesome - https://fontawesome.com License - https://fontawesome.com/license (Commercial License) Copyright 2023 Fonticons, Inc. --><path d="M64 16C64 7.2 71.2 0 80 0s16 7.2 16 16V64h64V16c0-8.8 7.2-16 16-16s16 7.2 16 16V64.3c53.7 4.1 96 49 96 103.7c0 31.3-13.9 59.4-35.8 78.5C291.8 261.2 320 299.3 320 344c0 57.4-46.6 104-104 104H192v48c0 8.8-7.2 16-16 16s-16-7.2-16-16V448H96v48c0 8.8-7.2 16-16 16s-16-7.2-16-16V448H41.7C18.7 448 0 429.3 0 406.3V272 240 101.6C0 80.8 16.8 64 37.6 64H64V16zM176 416h40c39.8 0 72-32.2 72-72s-32.2-72-72-72H184 32V406.3c0 5.4 4.4 9.7 9.7 9.7H80h96zm0-320H80 37.6c-3.1 0-5.6 2.5-5.6 5.6V240H184c39.8 0 72-32.2 72-72s-32.2-72-72-72h-8z"/></svg>
